X: 23318
T: Legacy, The
R: jig
M: 6/8
K: Gmajor
~G3 ~B3|~g3 gab|~G3 ~B3|dBA AFD|
~G3 ~B3|~g3 gab|age edB|1 dBA AFD:|2 dBA ABd||
~e3 edB|ded dBd|~e3 edB|gdB ABd|
~e3 edB|ded def|~g3 ~e3|1 dBA ABd:|2 dBA AFD||

